X: 111
T: Li hun
L: 1/8
M: 2/4
K: G
d' bb2 [I:setbarnb 1]| 
d' bb2 | 
a bd'2 | 
d' c' b a | 
fa2b | 
d'> b b b | 
a g f e | 
d4 | 
d cd2 | 
fa2b | 
a a a f | 
a fa2 | 
fa2b | 
b d' b b | 
b f b a | 
f> ed2 |]

@@@ Tune index: 8985
